X: 1
T: Viitatoista   [A]
T: Viistoista
O: Finland
Z: 2013 John Chambers <jc:trillian.mit.edu>
P: D2 G2 D2 G2 = 4x
M: 2/4
L: 1/8
K: A
|: "A"c2 "D"A>F | "A"EE/E/ EC | "E7"ED CD/D/ | "A"EE E2 :|
w: Viis-tois-ta n\"at-ti-\"a lik-kaa on n\"ain nuo-rel-la po-jal-la.
|: "D"FF FF | "A"FE EE | "E7"GG FG | "A"AA A2 :|
w: Kuu-si-tois-ta kuol-tu-a-ni it-kee hau-tani par-taal-la.
%
W:2.Voi mamman valkea poika
W:  mun toivoni palaa sinuun.
W:  Linnun lailla luoksesi lenn\"an,
W:  ah jos saisin sinut!
